!!!id: BC026
!!!page: 36-37t
!!!COM: (Folklore)
!!!PTR@@FR: Les 100 plus belles chansons
!!!OTL@@FR: Isabeau s'y promène
!!!PUB: La Bonne Chanson, inc.
!!!PDT: 2011
!!!YEM: On ne peut reproduire, enregistrer ou diffuser en tout ou en partie le présent ouvrage, sous quelque procédé que ce soit, électronique, mécanique, photographique, sonore, magnétique ou autre, sans avoir obtenu au préalable l'autorisation écrite de l'éditrice.
!!!SMA: 2012 Bibliothèque nationale du Québec; Biblothèque nationale du Canada
!!!AGN-type: Chanson de voyageur?
!!!AGN-Laforte: Strophique (avec refrain), 12:2(6+6)
!!!AGN-rhyme: none
**kern	**text	**text	**text	**text	**text	**text	**text	**text	**text	**text	**text	**text
*clefG2	*	*	*	*	*	*	*	*	*	*	*	*
*k[b-e-]	*	*	*	*	*	*	*	*	*	*	*	*
*D:	*	*	*	*	*	*	*	*	*	*	*	*
!!!OMD:Lent
*M6/8	*	*	*	*	*	*	*	*	*	*	*	*
*	*v:1	*v:2	*v:3	*v:4	*v:5	*v:6	*v:7	*v:8	*v:9	*v:10	*v:11	*v:12
*	*pline:1	*pline:2	*pline:3	*pline:4	*pline:5	*pline:6	*pline:7	*pline:8	*pline:9	*pline:10	*pline:11	*pline:12
8d	I-	El-	Le	La	Em-	Quand	Qu'a-	Je	Ne	De	De	De
=1	=1	=1	=1	=1	=1	=1	=1	=1	=1	=1	=1	=1
4.g	-sa-	-le	plus	chan-	-bar-	ell'	-vez-	pleur'	pleu-	la	la	la
8b-	-beau	fit	jeu-	-son	-que	fut	-vous	mon	-rez	pre-	se-	troi-
8a	s'y	un	-ne	que	dans	dans	donc,	an-	point,	-miè-	-con-	-siè-
8cc	pro-	re-	des	tu	ma	la	la	-neau	la	-re	-de	-me
=2	=2	=2	=2	=2	=2	=2	=2	=2	=2	=2	=2	=2
4.b-	-mè-	-con-	tren-	chan-	bar-	bar-	bel-	d'or-	bel-	plon-	plon-	plon-
4.a	-ne	-tre,	-te,	-tes,	-que,	-que,	-le,	-(e),	-le.	-ge,	-ge,	-ge,
=3	=3	=3	=3	=3	=3	=3	=3	=3	=3	=3	=3	=3
8f	Le	De	Il	Je	Je	Ell'	Qu'a-	Dans	Je	Il	L'an-	Le
8a	long	tren-	se	vou-	te	se	-vous	l'eau-	vous	n'a	-neau-	ga-
8b-	de	-te	mit	-drais	la	mit	à	-z-il	le	rien	-z-a	-lant
4g	son	ma-	à	la	chan-	à	tant	est	plon-	ra-	vol-	s'est
8f	jar-	-te-	chan-	sa-	-te-	pleu-	pleu-	tom-	-ge-	-me-	-ti-	no-
=4	=4	=4	=4	=4	=4	=4	=4	=4	=4	=4	=4	=4
4.g(	-din,	-lots;	-ter;	-voir;	-rai;	-rer;	-rer?	-bé;	-rai;	-né;	-gé;	-yé;
8g)	.	.	.	.	.	.	.	.	.	.	.	.
8r	.	.	.	.	.	.	.	.	.	.	.	.
!!LO:PB:g=original
=:||	=:||	=:||	=:||	=:||	=:||	=:||	=:||	=:||	=:||	=:||	=:||	=:||
8r	.	.	.	.	.	.	.	.	.	.	.	.
=5	=5	=5	=5	=5	=5	=5	=5	=5	=5	=5	=5	=5
*	*bis	*	*	*	*	*	*	*	*	*	*	*
*	*v:1	*v:2	*v:3	*v:4	*v:5	*v:6	*v:7	*v:8	*v:9	*v:10	*v:11	*v:12
*	*pline:1b7	*pline:2b7	*pline:3b7	*pline:4b7	*pline:5b7	*pline:6b7	*pline:7b7	*pline:8b7	*pline:9b7	*pline:10b7	*pline:11b7	*pline:12b7
8g	Le	De	Il	Je	Je	Ell'	Qu'a-	Dans	Je	Il	L'an-	Le
8g	long	tren-	se	vou-	te	se	-vous	l'eau-	vous	n'a	-neau-	ga-
8g	de	-te	mit	-drais	la	mit	à	-z-il	le	rien	-z-a	-lant
4dd	son	ma-	à	la	chan-	à	tant	est	plon-	ra-	vol-	s'est
8ee-	jar-	-te-	chan-	sa-	-te-	pleu-	pleu-	tom-	-ge-	-me-	-ti-	no-
=6	=6	=6	=6	=6	=6	=6	=6	=6	=6	=6	=6	=6
8dd	-din,	-lots,	-ter,	-voir,	-rai,	-rer,	-rer,	-bé,	-rai,	-né,	-gé,	-yé,
*	*Xbis	*	*	*	*	*	*	*	*	*	*	*
*	*refrain	*	*	*	*	*	*	*	*	*	*	*
*	*italic	*	*	*	*	*	*	*	*	*	*	*
8b-	Sur	.	.	.	.	.	.	.	.	.	.	.
8g	le	.	.	.	.	.	.	.	.	.	.	.
4cc	bord	.	.	.	.	.	.	.	.	.	.	.
8cc	de	.	.	.	.	.	.	.	.	.	.	.
=7	=7	=7	=7	=7	=7	=7	=7	=7	=7	=7	=7	=7
4cc(	l'î-	.	.	.	.	.	.	.	.	.	.	.
8b-)	.	.	.	.	.	.	.	.	.	.	.	.
4a	-le;	.	.	.	.	.	.	.	.	.	.	.
*	*Xitalic	*	*	*	*	*	*	*	*	*	*	*
*	*Xrefrain	*	*	*	*	*	*	*	*	*	*	*
8r	.	.	.	.	.	.	.	.	.	.	.	.
!!LO:PB:g=original
=8	=8	=8	=8	=8	=8	=8	=8	=8	=8	=8	=8	=8
*	*bis	*	*	*	*	*	*	*	*	*	*	*
*	*v:1	*v:2	*v:3	*v:4	*v:5	*v:6	*v:7	*v:8	*v:9	*v:10	*v:11	*v:12
*	*pline:1b7	*pline:2b7	*pline:3b7	*pline:4b7	*pline:5b7	*pline:6b7	*pline:7b7	*pline:8b7	*pline:9b7	*pline:10b7	*pline:11b7	*pline:12b7
8g	Le	De	Il	Je	Je	Ell'	Qu'a-	Dans	Je	Il	L'an-	Le
8g	long	tren-	se	vou-	te	se	-vous	l'eau-	vous	n'a	-neau-	ga-
8g	de	-te	mit	-drais	la	mit	à	-z-il	le	rien	-z-a	-lant
4dd	son	ma-	à	la	chan-	à	tant	est	plon-	ra-	vol-	s'est
8ee-	jar-	-te-	chan-	sa-	-te-	pleu-	pleu-	tom-	-ge-	-me-	-ti-	no-
=9	=9	=9	=9	=9	=9	=9	=9	=9	=9	=9	=9	=9
8dd	-din,	-lots,	-ter,	-voir,	-rai,	-rer,	-rer,	-bé,	-rai,	-né,	-gé,	-yé,
*	*italic	*	*	*	*	*	*	*	*	*	*	*
*	*refrain	*	*	*	*	*	*	*	*	*	*	*
8b-	Sur	.	.	.	.	.	.	.	.	.	.	.
8g	le	.	.	.	.	.	.	.	.	.	.	.
4cc	bord	.	.	.	.	.	.	.	.	.	.	.
8a	de	.	.	.	.	.	.	.	.	.	.	.
*	*Xbis	*	*	*	*	*	*	*	*	*	*	*
=10	=10	=10	=10	=10	=10	=10	=10	=10	=10	=10	=10	=10
8f	l'eau,	.	.	.	.	.	.	.	.	.	.	.
8a	Sur	.	.	.	.	.	.	.	.	.	.	.
8cc	le	.	.	.	.	.	.	.	.	.	.	.
8b-	bord	.	.	.	.	.	.	.	.	.	.	.
8a	du	.	.	.	.	.	.	.	.	.	.	.
8b-	vais-	.	.	.	.	.	.	.	.	.	.	.
=11	=11	=11	=11	=11	=11	=11	=11	=11	=11	=11	=11	=11
2.g	-seau.	.	.	.	.	.	.	.	.	.	.	.
*	*Xitalic	*	*	*	*	*	*	*	*	*	*	*
*	*Xrefrain	*	*	*	*	*	*	*	*	*	*	*
8r	.	.	.	.	.	.	.	.	.	.	.	.
4r	.	.	.	.	.	.	.	.	.	.	.	.
==	==	==	==	==	==	==	==	==	==	==	==	==
*-	*-	*-	*-	*-	*-	*-	*-	*-	*-	*-	*-	*-
!!!EED: Isaac Howie
!!!EEV: 2025/June/3
